X: 36
T: Glenn Towle  [A]
R: march
C: Dudley Laufman
Z: 1997 by John Chambers <jc:trillian.mit.edu>
N: Dudley & Jacqueline Laufman <laufman:totalnetnh.net>
B: Published in HERE'S TO EVERY COUNTRY DANCER, available from CDS or Dudley.
M: 2/4
L: 1/8
K: A
|: "A"A>B cc | "D"d/c/B "A"A2 | "E7"G>A Bc | "D"d2 "E7"cB \
|  "A"A>B cc | "D"d/c/B "A"A2 | "E7"GA BG | "A"A2 E2 :|
|: "A"c>d ee | "D"fe dc/d/ | "E7"ed cB/c/ | "E7"dc BE \
|  "A"c>d ee | "D"fe dc/d/ | "E7"ed cB | "A"A2 A2 :|
|: "A"c2- "E7"cd | "A"e2 "E7"d2 | "A"c2 "E7"B2 | "A"A4 \
|  "A"c2- "E7"cd | "A"e2 "E7"d2 | "A"c4 | "E7"B4 |
|  "A"c2- "E7"cd | "A"e2 "E7"d2 | "A"c2 "E/G#"B2 | "F#m"A2 Bc \
|  "Bm"d2 "(A)"c2 | "Bm"B2 "(A)"A2 | "E7"G4 | "A"A4 :|

%%sep 1 1 500

